X:1
T:Title
%%score 1 { 2 | 3 }
L:1/8
Q:1/4=108
M:4/4
K:Ab
V:1 treble nm="Grand Piano, Soprano"
V:2 bass nm="Choir Pad, La Jolla, 87.87 D"
V:3 bass 
V:1
 [EA]2 [CA]2 [CA]3 [EB] | [FA]2 [DF]2 [CE]2 [CA]2 | [EB]2 [EB]2 [EB]3 [Ed] | [Ec]2 [DB]2 [CA]4 | %4
w: By~C.~M.~Barnes,~1896 * * *||||
 [EA]2 [CA]2 [CA]3 [EB] | [FA]2 [DF]2 [CE]2 [CA]2 | [EB]2 [EB]2 [EB]3 [Ed] | [Ec]2 [DB]2 [CA]4 | %8
w: ||||
 [Ae]2 [Af]2 [Ae]3 [Ec] | [Ed]2 [EB]2 [Ec]2 [EB]2 | [EB]2 [Ec]2 [EB]3 [EB] | [Ec]2 [A=d]2 [Ge]4 | %12
w: ||||
 [EA]2 [CA]2 [CA]3 [EB] | [FA]2 [DF]2 [CE]2 [CA]2 | [EB]2 [EB]2 [EB]3 [Ed] | [Ec]2 [DB]2 [CA]4- | %16
w: ||||
 [CA]4 z4 |] %17
w: |
V:2
 C2 A,2 E,3 A, | A,2 A,2 A,2 A,2 | G,2 G,2 G,3 B, | A,2 G,2 A,4 | C2 A,2 E,3 A, | A,2 A,2 A,2 A,2 | %6
 G,2 G,2 G,3 B, | A,2 G,2 A,4 | C2 D2 C3 A, | B,2[K:bass] G,2 A,2 G,2 | G,2 A,2 G,3 G, | %11
 A,2 B,2 B,4 | C2 A,2 E,3 A, | A,2 A,2 A,2 A,2 | G,2 G,2 G,3 B, | A,2 G,2 A,4- | A,4 z4 |] %17
V:3
 A,,2 A,,2 A,,3 C, | D,2 D,2 A,,2 A,,2 | E,2 E,2 E,3 E, | E,2 E,2 A,,4 | A,,2 A,,2 A,,3 C, | %5
 D,2 D,2 A,,2 A,,2 | E,2 E,2 E,3 E, | E,2 E,2 A,,4 | A,2 A,2 A,4 | E,2 E,2 E,2 E,2 | %10
 E,2 E,2 E,3 E, | z2 F,2 E,4 | A,,2 A,,2 A,,3 C, | D,2 D,2 A,,2 A,,2 | E,2 E,2 E,3 E, | %15
 E,2 E,2 [A,,E,]4- | [A,,E,]4 z4 |] %17

